icons/linear-new-building-s-shop.svg

<svg xmlns="http://www.w3.org/2000/svg" width="32px" height="32px" viewBox="0 0 32 32" version="1.1">
    <title>linear-new-building-s-shop</title>
    <g id="linear-new-building-s-shop" stroke-width="1" fill-rule="evenodd">
        <path d="M25.9142081,3 C26.4571363,3 26.9188608,3.39612224 27.001417,3.9327371 L28.9922779,16.8759653 C29.3013313,19.3483925 27.5206919,21 25.1875,21 C24.0221599,21 22.9580587,20.591044 22.194142,19.8699477 L22.0265652,19.701 C21.3292492,20.4824058 20.3272792,20.9464796 19.2001641,20.9956508 L19,21 C17.8588025,21 16.8318599,20.5789914 16.1043073,19.8407779 L15.9995652,19.729 L15.8956927,19.8407779 C15.2109373,20.5355671 14.2609783,20.949372 13.2001641,20.9956508 L13,21 C11.8722283,21 10.8560391,20.5888392 10.1301096,19.8667007 L9.97256516,19.701 L9.96488722,19.7106847 C9.2362975,20.4849879 8.18578258,20.9467558 7.01947839,20.9956735 L6.8125,21 C4.47930807,21 2.69866872,19.3483925 3.0116283,16.8479428 L4.98553775,4.01753138 C5.07559899,3.43213336 5.57929849,3 6.17158379,3 L25.9142081,3 Z M11,17 C11,18.2530971 11.8402658,19 13,19 C14.1597342,19 15,18.2530971 15,17 L17,17 C17,18.2530971 17.8402658,19 19,19 C20.1597342,19 21,18.2530971 21,17 L23,17 C23,18.2272741 23.9296859,19 25.1875,19 C26.4011831,19 27.1548376,18.3009582 27.0116283,17.1520572 L25.1425652,5 L6.85756516,5 L4.99227788,17.1240347 C4.85155877,18.2497876 5.53498453,18.9383104 6.65683859,18.9960539 L6.8125,19 C8.07031413,19 9,18.2272741 9,17 L11,17 Z M7.99995228,22.8931772 L8,27 L24,27 L23.9993049,22.8958975 C24.3867253,22.9649737 24.7841146,23 25.1875,23 C25.4642235,23 25.7354013,22.9836612 26.0000342,22.9518398 L26.0000342,28 C26.0000342,28.5522847 25.5522847,29 25,29 L7,29 C6.44771525,29 6,28.5522847 6,28 L5.99872101,22.9516894 C6.26368797,22.9836206 6.53527889,23 6.8125,23 L7.06127535,22.9952367 L7.36222266,22.976361 C7.57798865,22.9582477 7.79075905,22.9304405 7.99995228,22.8931772 Z" id="&#24418;&#29366;" fill-rule="nonzero" />
    </g>
</svg>

<svg xmlns="http://www.w3.org/2000/svg" viewBox="0 0 32 32"><path fill="currentColor" d="M25.914 3a1.1 1.1 0 0 1 1.087.933l1.991 12.943c.31 2.472-1.471 4.124-3.805 4.124-1.165 0-2.229-.409-2.993-1.13l-.167-.169c-.698.781-1.7 1.245-2.827 1.295L19 21c-1.141 0-2.168-.421-2.896-1.16L16 19.73l-.104.112c-.685.695-1.635 1.108-2.696 1.155L13 21c-1.128 0-2.144-.411-2.87-1.133l-.157-.166-.008.01c-.729.774-1.78 1.236-2.946 1.285L6.812 21c-2.333 0-4.113-1.652-3.8-4.152l1.974-12.83A1.2 1.2 0 0 1 6.172 3zM11 17c0 1.253.84 2 2 2 1.16 0 2-.747 2-2h2c0 1.253.84 2 2 2 1.16 0 2-.747 2-2h2c0 1.227.93 2 2.188 2 1.213 0 1.967-.699 1.824-1.848L25.142 5H6.859L4.992 17.124c-.14 1.126.543 1.814 1.665 1.872l.155.004C8.07 19 9 18.227 9 17zm-3 5.893V27h16v-4.104a6.768 6.768 0 0 0 2 .056V28a1 1 0 0 1-1 1H7a1 1 0 0 1-1-1l-.001-5.048a6.8 6.8 0 0 0 .814.048l.248-.005.301-.019c.216-.018.429-.046.638-.083"/></svg>
